X: 16493
T: Hair On The Gate
R: reel
M: 4/4
K: Edorian
|:edde ~B3G|1 ~A3G FGAc:|2 A2 AG FGA2||
|:Begf efd.e|zedf efed|Begf efg.a|za2 g fede|
Begf efd.e|zedf efeB|1 ~c3A ~B3G|
A2 AG FG A2:|2 c8-|cd (3cBA FGAc||

